icons/diseased.svg

<svg id="icon" xmlns="http://www.w3.org/2000/svg" viewBox="0 0 512 512" width="512" height="512" fill="#ccff99" fill-opacity="1">
  <g transform="translate(0,0)" style="touch-action: none;">
    <path d="M256.25 20.313c-108.64 0-196.78 90.592-196.78 202.937 0 84.615 49.994 156.904 121.093 187.438v-16.375c0-25.638-6.2-40.132-13.875-48.47-7.675-8.336-17.567-11.4-27.72-11.937-18.252-.97-32.4-12.266-40.905-27-6.47-11.205-5.975-24.767-.532-36.97 5.444-12.2 15.49-23.71 29.19-33.905 27.394-20.39 69.79-35.56 122.436-35.56 52.702 0 98.475 15.648 129.344 36.218 15.435 10.284 27.24 21.746 34.22 33.968 6.976 12.222 8.93 26.41 2.186 38.094-4.19 7.257-11.026 11.988-18.687 15.938-7.663 3.95-16.085 6.78-24.595 6.78-11.865 0-20.63 2.214-27.438 10.157s-12.437 23.63-12.437 52.688v16.437c71.195-30.488 121.28-102.814 121.28-187.5 0-112.347-88.14-202.938-196.78-202.938zm-76.656 86.718c1.53.02 3.05.078 4.562.157 14.525.766 28.29 4.3 41.063 9.97l17.31 7.687-16.624 9.062-84.062 45.875-8.938-16.405 65.156-35.563c-24.195-5.513-50.92-1.877-82.062 17.532l-9.875-15.844c25.778-16.066 50.528-22.75 73.47-22.47zm150.312 0c22.944-.28 47.722 6.404 73.5 22.47l-9.875 15.844c-31.14-19.41-57.865-23.045-82.06-17.53l65.155 35.56-8.938 16.407-84.062-45.874L267 124.844l17.313-7.688c12.772-5.67 26.506-9.203 41.03-9.97 1.514-.078 3.034-.136 4.563-.155zm-73.594 170.282c-68.947 0-113.104 15.367-116.843 37.907l.5.03c13.487.714 28.843 5.31 40.468 17.938 11.624 12.627 18.812 32.418 18.812 61.125v100.312h113.813V394.312c0-31.4 5.766-51.81 16.937-64.843 11.17-13.034 27.003-16.69 41.625-16.69.352 0 .76-.03 1.156-.06-6.417-22.614-49.872-35.408-116.467-35.408z"/>
  </g>
</svg>

<?xml version="1.0" encoding="UTF-8" standalone="no"?>
<!DOCTYPE svg PUBLIC "-//W3C//DTD SVG 1.1//EN" "http://www.w3.org/Graphics/SVG/1.1/DTD/svg11.dtd">
<svg width="100%" height="100%" viewBox="0 0 500 500" version="1.1" xmlns="http://www.w3.org/2000/svg" xmlns:xlink="http://www.w3.org/1999/xlink" xml:space="preserve" xmlns:serif="http://www.serif.com/" style="fill-rule:evenodd;clip-rule:evenodd;stroke-linejoin:round;stroke-miterlimit:2;">
    <g transform="matrix(1.0319,0,0,1.0319,250,250)">
        <g transform="matrix(1,0,0,1,-256,-256)">
            <g>
                <path d="M256.25,20.313C147.61,20.313 59.47,110.905 59.47,223.25C59.47,307.865 109.464,380.154 180.563,410.688L180.563,394.313C180.563,368.675 174.363,354.181 166.688,345.843C159.013,337.507 149.121,334.443 138.968,333.906C120.716,332.936 106.568,321.64 98.063,306.906C91.593,295.701 92.088,282.139 97.531,269.936C102.975,257.736 113.021,246.226 126.721,236.031C154.115,215.641 196.511,200.471 249.157,200.471C301.859,200.471 347.632,216.119 378.501,236.689C393.936,246.973 405.741,258.435 412.721,270.657C419.697,282.879 421.651,297.067 414.907,308.751C410.717,316.008 403.881,320.739 396.22,324.689C388.557,328.639 380.135,331.469 371.625,331.469C359.76,331.469 350.995,333.683 344.187,341.626C337.379,349.569 331.75,365.256 331.75,394.314L331.75,410.751C402.945,380.263 453.03,307.937 453.03,223.251C453.03,110.904 364.89,20.313 256.25,20.313ZM179.594,107.031C181.124,107.051 182.644,107.109 184.156,107.188C198.681,107.954 212.446,111.488 225.219,117.158L242.529,124.845L225.905,133.907L141.843,179.782L132.905,163.377L198.061,127.814C173.866,122.301 147.141,125.937 115.999,145.346L106.124,129.502C131.902,113.436 156.652,106.752 179.594,107.032L179.594,107.031ZM329.906,107.031C352.85,106.751 377.628,113.435 403.406,129.501L393.531,145.345C362.391,125.935 335.666,122.3 311.471,127.815L376.626,163.375L367.688,179.782L283.626,133.908L267,124.844L284.313,117.156C297.085,111.486 310.819,107.953 325.343,107.186C326.857,107.108 328.377,107.05 329.906,107.031ZM256.312,277.313C187.365,277.313 143.208,292.68 139.469,315.22L139.969,315.25C153.456,315.964 168.812,320.56 180.437,333.188C192.061,345.815 199.249,365.606 199.249,394.313L199.249,494.625L313.062,494.625L313.062,394.312C313.062,362.912 318.828,342.502 329.999,329.469C341.169,316.435 357.002,312.779 371.624,312.779C371.976,312.779 372.384,312.749 372.78,312.719C366.363,290.105 322.908,277.311 256.313,277.311L256.312,277.313Z" style="fill:rgb(205,159,94);fill-rule:nonzero;"/>
            </g>
        </g>
    </g>
</svg>
